X:1
T:Sonatina in the Antique Style
T:Sonatina in the Antique Style
T:Op. 157, No. 4
T:Fritz Spindler
T:Public Domain (PianoXML typeset)
T:Public Domain (PianoXML typeset)
T:Public Domain (PianoXML typeset)
C:Fritz Spindler
Z:Public Domain (PianoXML typeset)
%%score { 1 | 2 }
L:1/8
Q:1/4=144
M:4/4
K:C
V:1 treble nm="Piano" snm="Pno."
V:2 bass 
V:1
"^Allegro"!mp! (!>!gage !wedge!c2) !wedge!c2 | (!>!dedB !wedge!G2) !wedge!G2 | (cGAB cde^f | %3
 !wedge!g2) !wedge!g2 !tenuto!g4 |!p! (!>!gage !wedge!c2) !wedge!c2 | %5
 (!>!dedB !wedge!G2) !wedge!G2 | (cdec BcdB | !wedge!c2) !wedge!e2 !tenuto!c4 :: %8
!pp! (!>!G^FGB!<(! !wedge!d2) !wedge!d2 | (!>!cBc_e !wedge!g2) !wedge!g2 | %10
 (!>!^fefa !wedge!c'2)!<)! !wedge!c'2 |!f! (b2 d'2 g4) |!pp! (!>!G^FGB !wedge!d2) !wedge!d2 | %13
!<(! (!>!cBc_e !wedge!g2) !wedge!g2 | (!>!^fefa !wedge!c'2) !wedge!c'2!<)! |!f! (!>!b2 d'2 g4) | %16
 (!>!f2 a2 d4) | (!>!d2 f2 B4) | (!>!B2 d2 G4-) | G!<(! (^GA_B =Bc^cd | ^def^f gfgf!<)! | %21
!p! !>!gage !wedge!c2) !wedge!c2 | (!>!dedB !wedge!G2) !wedge!G2 |!<(! (cGAB cde^f | %24
 !wedge!g2) !wedge!g2!<)! !tenuto!g4 |!p! (!>!gage !wedge!c2) !wedge!c2 | %26
 (!>!dedB !wedge!G2) !wedge!G2 | (cdec BcdB | !wedge!c2) !wedge!e2 !tenuto!c4 :| %29
[M:2/4][Q:1/4=127]"^Presto"!f!!>(! (a/g/.e)!>)!!>(! (g/f/.d)!>)! | %30
!>(! (f/e/.c)!>)!!>(! (e/d/.B)!>)! | (c/e/d/c/ B/d/c/B/ | A/c/B/A/ !tenuto!G2) | z4 | %34
!>(! (a/g/.e)!>)!!>(! (g/f/.d)!>)! | (f/e/d/c/ B/A/G/F/ | E/D/C/B,/ !tenuto!C2) |!p! .d.d .g.g | %38
 (^f/g/a/f/ g.b) | .d.d .g.g | (^f/g/a/f/ !tenuto!g2) |[K:bass] .D,.D, .G,.G, | %42
 (^F,/G,/A,/F,/ G,.B,) | .D,.D, .G,.G, | (^F,/G,/A,/F,/ !tenuto!G,2) | %45
[K:treble] (G,/A,/B,/C/ D/E/F/^F/ |!<(! !wedge!G)!wedge!A!wedge!B!wedge!c | %47
 !wedge!d!wedge!e!wedge!f!wedge!^f | .!tenuto!g2 .!tenuto!^g2!<)! | %49
!f!!>(! (a/g/.e)!>)!!>(! (g/f/.d)!>)! |!>(! (f/e/.c)!>)!!>(! (e/d/.B)!>)! | (c/e/d/c/ B/d/c/B/ | %52
 A/c/B/A/ !tenuto!G2) | z4 |!>(! (a/g/.e)!>)!!>(! (g/f/.d)!>)! | (f/e/d/c/ B/A/G/F/ | %56
 E/D/C/B,/ !tenuto!C2) ||!ff! !>![CEA]2 !>![CEA]2 | !>![CEA]2!p! (E/A/c/A/ | %59
 .[^GB])([GB].[Ac])([Ac] | !tenuto![^GB]2) z2 |!ff! !>![FAd]2 !>![FAd]2 | !>![FAd]2!p! (A/d/f/d/ | %63
 .[ce])([ce].[Bg])([Bg] | !tenuto!c2)!p! .e.e | (e.B) .B.B | (c.A) .A.A | (B.E) (E^F/^G/ | %68
 A2) .e.e | (e.B) .B.B | (d/c/.A) .A.A | (c/B/.E) (E^F/^G/ | A2) (.!tenuto!A.!tenuto!^A | BAG^F | %74
 G2) (.!tenuto!G.!tenuto!^G | AGFE | F2) (.!tenuto!F.!tenuto!^F | GFE^D | Eedc | BAG^F) | (GBd^F) | %81
 (G!>(!Bd^F) | G2!>)!!pp! (G/A/B/c/ | !tenuto!d2)!<(! (B/c/d/e/ | !tenuto!f2) (d/e/f/^f/ | %85
 .!tenuto!g2) .!tenuto!^g2!<)! |!f!!>(! (a/g/.e)!>)!!>(! (g/f/.d)!>)! | %87
!>(! (f/e/.c)!>)!!>(! (e/d/.B)!>)! | (c/e/d/c/ B/d/c/B/ | A/c/B/A/ !tenuto!G2) | z4 | %91
!>(! (a/g/.e)!>)!!>(! (g/f/.d)!>)! | (f/e/d/c/ B/A/G/F/ | E/D/C/B,/ !tenuto!C2) | %94
!p! ([B,G]/F/.D) ([CA]/G/.E) | ([B,G]/F/.D) (C/E/.G,) |"_cresc." ([B,G]/F/.D) ([CA]/G/.E) | %97
 ([B,G]/F/.D) z2 | (C/E/.G,) (C/E/.G) | (C/E/.G,) (C/E/.G) | %100
!f! !wedge![B,D]!wedge![CE]!wedge![DF]!<(!!wedge![EG] | %101
 !wedge![FA]!wedge![GB]!wedge![Ac]!wedge![Bd]!<)! |!ff! !tenuto![ce]2 !>![Ec]2 | !>![Ec]4 |] %104
V:2
 z4 !wedge![CE]2 !wedge![CE]2 | z4 !wedge![G,D]2 !wedge![G,D]2 | z2 ([CE]2 A,2 D2 | %3
 [G,B,]2) z2 (G,F,E,D, | C,2) z2 !wedge![E,C]2 !wedge![E,C]2 | z4 !wedge![G,D]2 !wedge![G,D]2 | %6
 ([CE]2 G,2 [DF]2 G,2 | !wedge![CE]2) !wedge![CE]2 !tenuto![CE]4 :: z4 (G,,^F,,G,,B,, | %9
 C,4) (C,B,,C,_E, | D,4) (D,^C,D,^F, | G,2) z2 (D2 F2 | G,4) (G,,^F,,G,,B,, | C,4) (C,B,,C,_E, | %14
 D,4) (D,^C,D,^F, | G,4) (!>!D2 F2 | G,4) (!>!D2 F2 | G,4) (!>!D2 F2 | G,4) (!>!D2 F2 | %19
 B,2) z2 z4 | z8 | z4 !wedge![CE]2 !wedge![CE]2 | z4 !wedge![G,D]2 !wedge![G,D]2 | %23
 z2 [CE]2 A,2 D2 | [G,B,]2 z2 (G,F,E,D, | C,2) z2 !wedge![E,C]2 !wedge![E,C]2 | %26
 z4 !wedge![G,D]2 !wedge![G,D]2 | ([CE]2 G,2 [DF]2 G,2 | %28
 !wedge![CE]2) !wedge![CE]2 !tenuto![CE]4 :|[M:2/4] z4 |[K:treble] (A/G/.E) (G/F/.D) | (E^F G2) | %32
[K:bass] !wedge![D,^F,C]!wedge![D,F,C] !tenuto![G,B,]2 |!>(! (A,/G,/.E,)!>)!!>(! (G,/F,/.D,)!>)! | %34
 (F,/E,/.C,) (E,/D,/.B,,) | (C,2 F,,2 | G,,2 C,2) |[K:treble] ([GB]D[GB]D) | ([Ac]D[GB]D) | %39
 ([GB]D[GB]D) | ([Ac]D !tenuto![GB]2) | ([GB]D[GB]D) | ([Ac]D[GB]D) | ([GB]D[GB]D) | %44
 ([Ac]D !tenuto![GB]2) | z4 | z4 | z4 | z4 | z4 |[K:treble] (A/G/.E) (G/F/.D) | (E^F G2) | %52
[K:bass] !wedge![D,^F,C]!wedge![D,F,C] !tenuto![G,B,]2 |!>(! (A,/G,/.E,)!>)!!>(! (G,/F,/.D,)!>)! | %54
 (F,/E,/.C,) (E,/D,/.B,,) | (C,2 F,,2 | G,,2 !tenuto!C,2) || !>![A,,E,]2 !>![A,,E,]2 | %58
 !>![A,,E,]2 z2 | .[E,B,]([E,B,].[A,C])([A,C] | !tenuto![E,B,]2) z2 | !>![D,A,]2 !>![D,A,]2 | %62
 !>![D,A,]2 z2 | .[CE]([CE].[G,D])([G,D] | !tenuto![CE]2) z2 | ([^G,B,D]E,[G,B,D]E,) | %66
 ([A,C]E,[A,C]E,) | ([B,D]E,[B,D]E,) | ([A,C]E,[A,C]E,) | ([^G,D]E,[G,D]E,) | ([A,C]E,[A,C]E,) | %71
 ([^G,D]E, [G,D]E, | [A,C]2) z2 | z2 (^D2 | EDCB, | C2 ^C2 | DCB,A, | B,2) G,2 | C2 z2 | %79
 ([D,A,C]4 | [G,B,]2) ([D,A,C]2 | [G,B,]2) ([D,A,C]2 | [G,B,]2) z2 | z4 | z4 | z4 | z4 | %87
[K:treble] (A/G/.E) (G/F/.D) | (E^F G2) |[K:bass] !wedge![D,^F,C]!wedge![D,F,C] !tenuto![G,B,]2 | %90
!>(! (A,/G,/.E,)!>)!!>(! (G,/F,/.D,)!>)! | (F,/E,/.C,) (E,/D,/.B,,) | (C,2 F,,2 | %93
 G,,2 !tenuto!C,2) | (C,,G,,C,,G,,) | (C,,G,,C,,G,,) | (C,,G,,C,,G,,) | (C,,G,,C,,G,,) | %98
 (C,,G,,C,,G,,) | (C,,G,,C,,G,,) | (C,,/G,,/C,,/G,,/ C,,/G,,/C,,/G,,/ | %101
 C,,/G,,/C,,/G,,/ C,,/G,,/C,,/G,,/ |!ped! !tenuto!C,,2)!ped-up!!ped! !>![C,G,]2 | %103
 !>![C,G,]4!ped-up! |] %104

